file/iac.svg

<svg clip-rule="evenodd" fill-rule="evenodd" stroke-linejoin="round" stroke-miterlimit="1.41421" viewBox="0 0 560 400" xmlns="http://www.w3.org/2000/svg"><g fill-rule="nonzero" transform="matrix(.930714 0 0 .930714 93.8573 60.3464)"><path d="m393.4 90.3-.1.2-19.5 32.2-24.3 7.7-31.4 84.4v-59.7zm-349.6 83.7h-20.4v37.5h-16.8v3.7h53.9v-3.7h-16.7zm-37.2-85.1h16.7v81.4h20.4v-81.4h16.7v-3.7h-53.8zm201.1 81.4c-.6-6-1-12.7-1-20.1 0-30.5 5.8-48.9 14-56.9 6.3-5.9 13.7-7.4 21.9-7.4 16 0 36.6 12.3 36.6 37.5h3.7v-40.8h-3.7c-.4 2.4-3.7 5.2-7.1 5.2-9.6 0-17.5-5.6-29.5-5.6-33.8 0-57.4 31.2-57.4 68 0 6.9.8 13.7 2.4 20.1zm34.9 44.2c-8.2 0-15.6-1.5-21.9-7.4-5.8-5.6-10.3-16.5-12.5-33.1h-19.5c7.7 25.5 27.8 44.2 53.9 44.2 15.6 0 25.5-6.3 31.2-6.3 5.2 0 8.7 3.2 9.1 6h3.7v-44.4h-3.7c0 24.1-16.4 41-40.3 41zm-73.8-40.5h-24.6l13.7 37.5h-17.1v3.7h54.6v-3.7h-11.9zm-25.7-3.7 1.1 3.7h-37.1-6.4l-13.7 37.5h17v3.7h-36.7v-3.7h15.7l13.7-37.5 1.3-3.7 32.1-88.4h2.6l34.7 88.4zm0 0-20.5-56.9-20.6 56.9z" fill="#0c2950"/><path d="m393.4 90.3-75.3 64.8zm-44 40.1-31.4 84.4 75.2-124.3-19.5 32.2zm-326 39.9v3.7h73.3l1.3-3.7h-54.2zm184.3 0h-20.1-20.2-24.3l1.1 3.7h64s-.4-2.2-.5-3.7z" fill="#fff200"/></g></svg>

<?xml version="1.0" encoding="UTF-8" standalone="no"?>
<!DOCTYPE svg PUBLIC "-//W3C//DTD SVG 1.1//EN" "http://www.w3.org/Graphics/SVG/1.1/DTD/svg11.dtd">
<svg width="100%" height="100%" viewBox="0 0 560 400" version="1.1" xmlns="http://www.w3.org/2000/svg" xmlns:xlink="http://www.w3.org/1999/xlink" xml:space="preserve" xmlns:serif="http://www.serif.com/" style="fill-rule:evenodd;clip-rule:evenodd;stroke-linejoin:round;stroke-miterlimit:1.41421;">
    <g transform="matrix(0.930714,0,0,0.930714,93.8573,60.3464)">
        <path id="logo_2_" d="M393.4,90.3L393.3,90.5L373.8,122.7L349.5,130.4L318.1,214.8L318.1,155.1L393.4,90.3ZM43.8,174L23.4,174L23.4,211.5L6.6,211.5L6.6,215.2L60.5,215.2L60.5,211.5L43.8,211.5L43.8,174ZM6.6,88.9L23.3,88.9L23.3,170.3L43.7,170.3L43.7,88.9L60.4,88.9L60.4,85.2L6.6,85.2L6.6,88.9ZM207.7,170.3C207.1,164.3 206.7,157.6 206.7,150.2C206.7,119.7 212.5,101.3 220.7,93.3C227,87.4 234.4,85.9 242.6,85.9C258.6,85.9 279.2,98.2 279.2,123.4L282.9,123.4L282.9,82.6L279.2,82.6C278.8,85 275.5,87.8 272.1,87.8C262.5,87.8 254.6,82.2 242.6,82.2C208.8,82.2 185.2,113.4 185.2,150.2C185.2,157.1 186,163.9 187.6,170.3L207.7,170.3ZM242.6,214.5C234.4,214.5 227,213 220.7,207.1C214.9,201.5 210.4,190.6 208.2,174L188.7,174C196.4,199.5 216.5,218.2 242.6,218.2C258.2,218.2 268.1,211.9 273.8,211.9C279,211.9 282.5,215.1 282.9,217.9L286.6,217.9L286.6,173.5L282.9,173.5C282.9,197.6 266.5,214.5 242.6,214.5ZM168.8,174L144.2,174L157.9,211.5L140.8,211.5L140.8,215.2L195.4,215.2L195.4,211.5L183.5,211.5L168.8,174ZM143.1,170.3L144.2,174L107.1,174L100.7,174L87,211.5L104,211.5L104,215.2L67.3,215.2L67.3,211.5L83,211.5L96.7,174L98,170.3L130.1,81.9L132.7,81.9L167.4,170.3L143.1,170.3ZM143.1,170.3L122.6,113.4L102,170.3L143.1,170.3Z" style="fill:rgb(12,41,80);fill-rule:nonzero;"/>
        <path id="logo_1_" d="M393.4,90.3L318.1,155.1L393.4,90.3ZM349.4,130.4L318,214.8L393.2,90.5L373.7,122.7L349.4,130.4ZM23.4,170.3L23.4,174L96.7,174L98,170.3L43.8,170.3L23.4,170.3ZM207.7,170.3L187.6,170.3L167.4,170.3L143.1,170.3L144.2,174L208.2,174C208.2,174 207.8,171.8 207.7,170.3Z" style="fill:rgb(255,242,0);fill-rule:nonzero;"/>
    </g>
</svg>
